X: 3009
T: Northern Lass
%R: march
B: Henry Playford "Apollo's Banquet", London 1687 (5th Edition)
F: https://archive.org/details/apollosbanquetco01rugg
Z: 2017 John Chambers <jc:trillian.mit.edu>
M: C|
L: 1/8
K: Gm
% - - - - - - - - - -
A2 |\
B3A G2B2 | A3G ^F2A2 | B2c2 d2e2 | c3B A2c2 |\
B3A G2B2 | A3G ^F2A2 | B2c2 d2=ef | g6 :|
|: a2 |\
b2(gf) f2(ed) | c3B A2g2 | (fg)(fd) c2B2 | A3G ^F2a2 |\
b2(ag) f2(ed) | c3B (AB)c2 | B2(AG) A2^F2 | G6 :|
|: A2 |\
B3A B2c2 | d2e2 c2B2 | A3G A2B2 | c2d2 B2A2 |\
B3A B2c2 | d2e2 c2(BA) | B2(AG) A2(G^F) | G6 :|
|: A2 |\
B2(AG) A2(G^F) | G2B2 A2c2 | B2(AG) A2(G^F) | G2B2 A2c2 |\
B2(AG) A2(G^F) | G2B2 A2c2 | B2(AG) A2(G^F) | HG6 |]
% - - - - - - - - - -

%%sep 1 1 500
%%sep 1 1 500

